packages/core/src/svgs/tokens/mono/ZIG.svg

<svg width="24" height="24" viewBox="0 0 24 24" fill="none" xmlns="http://www.w3.org/2000/svg">
<path d="M2.64502 9.00645C2.64502 8.34189 3.1418 7.8064 3.7547 7.8064H4.76116C5.37408 7.8064 5.87086 8.34189 5.87086 9.00645V14.3483C5.87086 15.0129 5.37408 15.5484 4.76116 15.5484H3.7547C3.1418 15.5484 2.64502 15.0129 2.64502 14.3483V9.00645Z" fill="white"/>
<path d="M18.1292 8.86449C18.1292 8.28382 18.6259 7.8064 19.2389 7.8064H20.2453C20.8583 7.8064 21.355 8.28382 21.355 8.86449V13.2C21.355 13.7806 20.8583 14.258 20.2453 14.258H19.2389C18.6259 14.258 18.1292 13.7806 18.1292 13.2V8.86449Z" fill="white"/>
<path d="M14.2581 11.5031C14.2581 10.8902 14.7548 10.387 15.3677 10.387H16.3742C16.987 10.387 17.4838 10.8902 17.4838 11.5031V18.3032C17.4838 18.916 16.987 19.4193 16.3742 19.4193H15.3677C14.7548 19.4193 14.2581 18.916 14.2581 18.3032V11.5031Z" fill="white"/>
<path d="M6.51636 3.14194C6.51636 2.50968 7.01314 2 7.62604 2H8.6325C9.24543 2 9.74221 2.51614 9.74221 3.14194V12.471C9.74221 13.1033 9.24543 13.613 8.6325 13.613H7.62604C7.01314 13.613 6.51636 13.0968 6.51636 12.471V3.14194Z" fill="white"/>
<path d="M10.3875 5.0708C10.3875 4.44498 10.8842 3.9353 11.4971 3.9353H12.5036C13.1164 3.9353 13.6132 4.44498 13.6132 5.0708V20.8645C13.6132 21.4902 13.1164 22 12.5036 22H11.4971C10.8842 22 10.3875 21.4902 10.3875 20.8645V5.0708Z" fill="white"/>
</svg>

<svg xmlns="http://www.w3.org/2000/svg" width="24" height="24" fill="none" viewBox="0 0 24 24">
    <path fill="#fff" d="M2.645 9.006c0-.664.497-1.2 1.11-1.2H4.76c.613 0 1.11.536 1.11 1.2v5.342c0 .665-.497 1.2-1.11 1.2H3.755c-.613 0-1.11-.535-1.11-1.2zm15.485-.142c0-.58.496-1.058 1.109-1.058h1.006c.613 0 1.11.478 1.11 1.058V13.2c0 .58-.497 1.058-1.11 1.058H19.24c-.613 0-1.11-.477-1.11-1.058zm-3.872 2.639c0-.613.497-1.116 1.11-1.116h1.006c.613 0 1.11.503 1.11 1.116v6.8c0 .613-.497 1.116-1.11 1.116h-1.006c-.613 0-1.11-.503-1.11-1.116zM6.516 3.142C6.516 2.51 7.013 2 7.626 2h1.007c.612 0 1.11.516 1.11 1.142v9.329c0 .632-.498 1.142-1.11 1.142H7.626c-.613 0-1.11-.516-1.11-1.142zm3.872 1.928c0-.625.496-1.135 1.11-1.135h1.006c.612 0 1.11.51 1.11 1.136v15.794c0 .625-.498 1.135-1.11 1.135h-1.007c-.613 0-1.11-.51-1.11-1.136z"/>
</svg>
